img/svg/arbeidsgiver.svg

<?xml version="1.0" encoding="UTF-8" standalone="no"?>
<svg width="30px" height="31px" viewBox="0 0 30 31" version="1.1" xmlns="http://www.w3.org/2000/svg" xmlns:xlink="http://www.w3.org/1999/xlink">
    <!-- Generator: Sketch 42 (36781) - http://www.bohemiancoding.com/sketch -->
    <title>Group</title>
    <desc>Created with Sketch.</desc>
    <defs></defs>
    <g id="Page-1" stroke="none" stroke-width="1" fill="none" fill-rule="evenodd" stroke-linejoin="round">
        <g id="Digisyfo_styleguide" transform="translate(-237.000000, -2107.000000)" stroke="#3E3832">
            <g id="Group" transform="translate(237.000000, 2107.000000)">
                <path d="M15.00125,20.8911614 C16.87625,20.8911614 21.25125,18.3684551 21.25125,14.5843957 C23.12625,14.5843957 23.12625,10.8003363 21.25125,10.8003363 L20.62625,7.64695341 C15.62625,7.64695341 15.62625,5.7549237 15.00125,5.12424713 C14.37625,5.7549237 14.37625,7.64695341 9.37625,7.64695341 L8.75125,10.8003363 C6.87625,10.8003363 6.87625,14.5843957 8.75125,14.5843957 C8.75125,18.3684551 13.12625,20.8911614 15.00125,20.8911614 L15.00125,20.8911614 Z" id="Stroke-1411" stroke-linecap="round"></path>
                <path d="M22.486625,11.7476125 L23.126625,7.01627684 C23.126625,7.01627684 23.751625,0.709511141 15.001625,0.709511141 C6.251625,0.709511141 6.876625,7.01627684 6.876625,7.01627684 L7.515375,11.7476125" id="Stroke-1412" stroke-linecap="round"></path>
                <path d="M11.82125,19.648224 L3.87125,21.8442398 C1.91875,22.5821314 0.62625,24.4628089 0.62625,26.566746 L0.62625,29.7201288 L29.37625,29.7201288 L29.37625,26.566746 C29.37625,24.4628089 28.08375,22.5821314 26.13125,21.8442398 L18.205,19.6293037" id="Stroke-1413" stroke-linecap="round"></path>
                <path d="M11.25125,12.0647167 C11.25125,11.3671884 11.81,11.4340401 12.50125,11.4340401 C13.1925,11.4340401 13.75125,11.3671884 13.75125,12.0647167" id="Stroke-1414" stroke-linecap="round"></path>
                <path d="M16.25125,12.0647167 C16.25125,11.3671884 16.81,11.4340401 17.50125,11.4340401 C18.1925,11.4340401 18.75125,11.3671884 18.75125,12.0647167" id="Stroke-1415" stroke-linecap="round"></path>
                <polygon id="Stroke-1416" points="15.00125 24.0445442 11.25125 29.7206334 18.75125 29.7206334"></polygon>
                <path d="M13.12625,20.2604848 L13.12625,22.1525145 C13.12625,23.1981763 13.96625,24.0445442 15.00125,24.0445442 C16.03625,24.0445442 16.87625,23.1981763 16.87625,22.1525145 L16.87625,20.2604848" id="Stroke-1417"></path>
                <path d="M21.87625,25.9365739 L26.25125,25.9365739" id="Stroke-1418"></path>
            </g>
        </g>
    </g>
</svg>

<svg width="30" height="31" xmlns="http://www.w3.org/2000/svg"><g stroke="#3E3832" fill="none" fill-rule="evenodd" stroke-linejoin="round"><path d="M15.001 20.891c1.875 0 6.25-2.523 6.25-6.307 1.875 0 1.875-3.784 0-3.784l-.625-3.153c-5 0-5-1.892-5.625-2.523-.625.63-.625 2.523-5.625 2.523L8.751 10.8c-1.875 0-1.875 3.784 0 3.784 0 3.784 4.375 6.307 6.25 6.307h0z" stroke-linecap="round"/><path d="M22.487 11.748l.64-4.732S23.752.71 15.002.71 6.877 7.016 6.877 7.016l.638 4.732M11.821 19.648l-7.95 2.196a5.04 5.04 0 0 0-3.245 4.723v3.153h28.75v-3.153a5.04 5.04 0 0 0-3.245-4.723l-7.926-2.215" stroke-linecap="round"/><path d="M11.251 12.065c0-.698.559-.631 1.25-.631.692 0 1.25-.067 1.25.63M16.251 12.065c0-.698.559-.631 1.25-.631s1.25-.067 1.25.63" stroke-linecap="round"/><path d="M15.001 24.045l-3.75 5.676h7.5zM13.126 20.26v1.893c0 1.045.84 1.892 1.875 1.892a1.883 1.883 0 0 0 1.875-1.892V20.26M21.876 25.937h4.375"/></g></svg>
